src/assets/img/meter3.svg

<svg width="204" height="204" viewBox="0 0 204 204" fill="none" xmlns="http://www.w3.org/2000/svg">
<path d="M187.639 69.9021C193.092 67.8586 199.226 70.6143 200.696 76.2484C206.238 97.4863 204.802 120.051 196.436 140.546C186.737 164.31 168.435 183.543 145.182 194.409C121.928 205.275 95.4333 206.975 70.9821 199.169C46.5309 191.364 25.9211 174.628 13.2642 152.299C0.607328 129.97 -3.16618 103.69 2.6965 78.7016C8.55918 53.7134 23.627 31.854 44.8941 17.4842C66.1612 3.11439 92.0641 -2.7094 117.435 1.17464C139.317 4.52444 159.415 14.8827 174.791 30.5466C178.869 34.702 178.083 41.3805 173.529 45.009C168.975 48.6374 162.385 47.8272 158.195 43.7832C146.212 32.2155 130.877 24.5642 114.244 22.0179C94.1181 18.9368 73.5701 23.5566 56.6994 34.9558C39.8288 46.355 27.8758 63.6955 23.2251 83.518C18.5744 103.34 21.5679 124.188 31.6082 141.901C41.6486 159.614 57.9979 172.89 77.3943 179.082C96.7908 185.274 117.809 183.925 136.255 175.305C154.701 166.686 169.219 151.429 176.914 132.578C183.273 116.999 184.584 99.9117 180.815 83.688C179.497 78.0164 182.187 71.9457 187.639 69.9021Z" fill="url(#paint0_linear_16_349)"/>
<path d="M66.08 99.16C66.08 103.804 69.32 107.512 74.036 107.512C74.648 107.512 75.08 107.44 75.332 107.296L69.896 115H77.528L83.072 106.18C84.476 103.912 85.376 101.32 85.376 98.98C85.376 93.724 81.308 89.8 75.728 89.8C70.256 89.8 66.08 93.76 66.08 99.16ZM72.416 98.908C72.416 97.072 73.892 95.668 75.764 95.668C77.636 95.668 79.076 97.108 79.076 98.944C79.076 100.78 77.636 102.184 75.764 102.184C73.892 102.184 72.416 100.744 72.416 98.908ZM109.665 102.652C109.665 95.848 105.777 89.8 98.7213 89.8C91.6293 89.8 87.7413 95.848 87.7413 102.652C87.7413 109.456 91.6293 115.504 98.7213 115.504C105.777 115.504 109.665 109.456 109.665 102.652ZM102.969 102.652C102.969 106 101.673 109.276 98.7213 109.276C95.7333 109.276 94.4373 106 94.4373 102.652C94.4373 99.304 95.7333 96.028 98.7213 96.028C101.673 96.028 102.969 99.304 102.969 102.652ZM124.521 96.028C124.521 92.608 121.749 89.944 118.185 89.944C114.621 89.944 111.849 92.608 111.849 96.028C111.849 99.448 114.621 102.112 118.185 102.112C121.749 102.112 124.521 99.448 124.521 96.028ZM120.273 96.028C120.273 97.288 119.373 98.152 118.185 98.152C116.997 98.152 116.097 97.288 116.097 96.028C116.097 94.768 116.997 93.904 118.185 93.904C119.373 93.904 120.273 94.768 120.273 96.028ZM138.021 90.268H132.513L114.153 115H119.661L138.021 90.268ZM127.653 109.24C127.653 112.66 130.425 115.324 133.989 115.324C137.553 115.324 140.325 112.66 140.325 109.24C140.325 105.82 137.553 103.156 133.989 103.156C130.425 103.156 127.653 105.82 127.653 109.24ZM131.901 109.24C131.901 107.98 132.801 107.116 133.989 107.116C135.177 107.116 136.077 107.98 136.077 109.24C136.077 110.5 135.177 111.364 133.989 111.364C132.801 111.364 131.901 110.5 131.901 109.24Z" fill="white"/>
<defs>
<linearGradient id="paint0_linear_16_349" x1="-12.4348" y1="91.2145" x2="228.124" y2="92.098" gradientUnits="userSpaceOnUse">
<stop stop-color="#AA367C"/>
<stop offset="1" stop-color="#4A2FBD"/>
</linearGradient>
</defs>
</svg>

<?xml version="1.0" encoding="utf-8"?>
<!-- Generator: Adobe Illustrator 27.7.0, SVG Export Plug-In . SVG Version: 6.00 Build 0)  -->
<svg version="1.1" id="Layer_1" xmlns="http://www.w3.org/2000/svg" xmlns:xlink="http://www.w3.org/1999/xlink" x="0px" y="0px"
	 width="204px" height="204px" viewBox="0 0 204 204" style="enable-background:new 0 0 204 204;" xml:space="preserve">
<style type="text/css">
	.st0{fill:url(#SVGID_1_);}
	.st1{fill:#FFFFFF;}
</style>
<linearGradient id="SVGID_1_" gradientUnits="userSpaceOnUse" x1="-12.4729" y1="104.4204" x2="228.0859" y2="103.5369" gradientTransform="matrix(1 0 0 -1 0 206)">
	<stop  offset="0" style="stop-color:#C8FF6A"/>
	<stop  offset="1" style="stop-color:#196715"/>
</linearGradient>
<path class="st0" d="M187.6,69.9c5.5-2,11.6,0.7,13.1,6.3c5.5,21.2,4.1,43.8-4.3,64.3c-9.7,23.8-28,43-51.3,53.9
	c-23.3,10.9-49.7,12.6-74.2,4.8c-24.5-7.8-45.1-24.5-57.7-46.9C0.6,130-3.2,103.7,2.7,78.7c5.9-25,20.9-46.8,42.2-61.2
	S92.1-2.7,117.4,1.2c21.9,3.3,42,13.7,57.4,29.4c4.1,4.2,3.3,10.8-1.3,14.5c-4.6,3.6-11.1,2.8-15.3-1.2c-12-11.6-27.3-19.2-44-21.8
	C94.1,18.9,73.6,23.6,56.7,35C39.8,46.4,27.9,63.7,23.2,83.5c-4.7,19.8-1.7,40.7,8.4,58.4c10,17.7,26.4,31,45.8,37.2
	c19.4,6.2,40.4,4.8,58.9-3.8c18.4-8.6,33-23.9,40.7-42.7c6.4-15.6,7.7-32.7,3.9-48.9C179.5,78,182.2,71.9,187.6,69.9z"/>
<path class="st1" d="M66.1,99.2c0,4.6,3.2,8.4,8,8.4c0.6,0,1-0.1,1.3-0.2l-5.4,7.7h7.6l5.5-8.8c1.4-2.3,2.3-4.9,2.3-7.2
	c0-5.3-4.1-9.2-9.6-9.2C70.3,89.8,66.1,93.8,66.1,99.2z M72.4,98.9c0-1.8,1.5-3.2,3.3-3.2s3.3,1.4,3.3,3.3s-1.4,3.2-3.3,3.2
	S72.4,100.7,72.4,98.9z M109.7,102.7c0-6.8-3.9-12.9-10.9-12.9c-7.1,0-11,6-11,12.9s3.9,12.9,11,12.9
	C105.8,115.5,109.7,109.5,109.7,102.7z M103,102.7c0,3.3-1.3,6.6-4.2,6.6c-3,0-4.3-3.3-4.3-6.6s1.3-6.6,4.3-6.6
	C101.7,96,103,99.3,103,102.7z M124.5,96c0-3.4-2.8-6.1-6.3-6.1c-3.6,0-6.3,2.7-6.3,6.1s2.8,6.1,6.3,6.1
	C121.7,102.1,124.5,99.4,124.5,96z M120.3,96c0,1.3-0.9,2.1-2.1,2.1c-1.2,0-2.1-0.9-2.1-2.1s0.9-2.1,2.1-2.1
	C119.4,93.9,120.3,94.8,120.3,96z M138,90.3h-5.5L114.2,115h5.5L138,90.3z M127.7,109.2c0,3.4,2.8,6.1,6.3,6.1s6.3-2.7,6.3-6.1
	c0-3.4-2.8-6.1-6.3-6.1S127.7,105.8,127.7,109.2z M131.9,109.2c0-1.3,0.9-2.1,2.1-2.1s2.1,0.9,2.1,2.1c0,1.3-0.9,2.1-2.1,2.1
	S131.9,110.5,131.9,109.2z"/>
</svg>
